image/achiments1.svg

<svg width="41" height="39" viewBox="0 0 41 39" fill="none" xmlns="http://www.w3.org/2000/svg">
<path d="M40.1319 15.4088H33.731C33.7098 15.4089 33.6893 15.4015 33.6734 15.3879C33.6576 15.3743 33.6475 15.3555 33.6451 15.3352V13.855C33.6451 13.6298 33.553 13.4137 33.3887 13.2537C33.2244 13.0936 33.0012 13.0024 32.7675 13H15.5395C15.327 13 15.1232 13.0814 14.9729 13.2262C14.8227 13.371 14.7382 13.5675 14.7382 13.7723C14.7382 13.9771 14.8227 14.1735 14.9729 14.3184C15.1232 14.4632 15.327 14.5446 15.5395 14.5446H31.9471C31.9682 14.5468 31.9877 14.5565 32.0018 14.5718C32.0159 14.5871 32.0236 14.6069 32.0235 14.6273V20.4653C32.022 23.0191 31.3308 25.5284 30.0178 27.7466C28.7048 29.9647 26.8153 31.8152 24.5351 33.116H9.11004C6.82631 31.8175 4.93298 29.968 3.61654 27.7497C2.30011 25.5314 1.60601 23.0208 1.6026 20.4653V14.6273C1.60247 14.6069 1.6102 14.5871 1.62429 14.5718C1.63838 14.5565 1.65784 14.5468 1.67892 14.5446H6.96369C7.0683 14.556 7.17422 14.5475 7.27541 14.5195C7.37661 14.4916 7.47109 14.4446 7.55347 14.3815C7.63585 14.3183 7.70451 14.2401 7.75554 14.1513C7.80656 14.0626 7.83895 13.965 7.85085 13.8642C7.86275 13.7634 7.85393 13.6613 7.8249 13.5638C7.79586 13.4663 7.74718 13.3752 7.68163 13.2958C7.61608 13.2164 7.53495 13.1502 7.44286 13.1011C7.35078 13.0519 7.24954 13.0207 7.14494 13.0092C7.08811 12.9999 7.03007 12.9999 6.97323 13.0092H0.877616C0.644858 13.0092 0.421633 13.0983 0.257048 13.2569C0.0924628 13.4156 0 13.6307 0 13.855V20.4653C0.00420139 22.8657 0.561815 25.2351 1.63252 27.4023C2.70322 29.5695 4.26025 31.4803 6.19101 32.9965C6.20443 33.0101 6.21191 33.0282 6.21191 33.047C6.21191 33.0658 6.20443 33.0839 6.19101 33.0976C6.17981 33.1051 6.1665 33.1091 6.15285 33.1091C6.13921 33.1091 6.12589 33.1051 6.1147 33.0976H0.877616C0.644858 33.0976 0.421633 33.1867 0.257048 33.3453C0.0924628 33.504 0 33.7191 0 33.9434C0.0100724 35.2879 0.571304 36.574 1.5613 37.5212C2.5513 38.4685 3.88975 39 5.28478 39H30.2778C31.6672 39.0002 33.0009 38.474 33.9914 37.5349C34.9818 36.5958 35.5495 35.3191 35.5721 33.9802C35.5696 33.755 35.475 33.5399 35.3089 33.3815C35.1428 33.2232 34.9186 33.1344 34.6849 33.1344H27.5495C27.5401 33.1208 27.5351 33.1048 27.5351 33.0884C27.5351 33.072 27.5401 33.056 27.5495 33.0424C27.5462 33.0273 27.5462 33.0116 27.5495 32.9965C28.8947 31.9035 30.0564 30.6164 30.9932 29.181H33.1968C35.2663 29.181 37.2511 28.3887 38.7145 26.9783C40.1778 25.568 40.9999 23.6551 40.9999 21.6605V16.2638C41.0012 16.1527 40.9797 16.0425 40.9368 15.9394C40.8939 15.8363 40.8303 15.7424 40.7497 15.663C40.6691 15.5836 40.573 15.5203 40.467 15.4767C40.361 15.433 40.2471 15.41 40.1319 15.4088ZM33.7691 34.7157C33.7919 34.7157 33.8138 34.7244 33.8299 34.7399C33.846 34.7555 33.855 34.7765 33.855 34.7984C33.6516 35.5639 33.1897 36.2423 32.5419 36.7268C31.8942 37.2112 31.0976 37.474 30.2778 37.4738H5.28478C4.46571 37.4752 3.66969 37.2126 3.02325 36.7278C2.37681 36.2431 1.91705 35.564 1.71707 34.7984C1.71073 34.7925 1.70569 34.7853 1.70225 34.7774C1.69881 34.7695 1.69703 34.761 1.69703 34.7525C1.69703 34.7439 1.69881 34.7354 1.70225 34.7275C1.70569 34.7197 1.71073 34.7125 1.71707 34.7065H33.7691V34.7157ZM33.6451 20.5021V20.0792H36.1254C36.1481 20.0792 36.17 20.0879 36.1861 20.1034C36.2022 20.119 36.2112 20.14 36.2112 20.162V21.6238C36.2062 22.3879 35.889 23.1194 35.3284 23.6597C34.7677 24.2001 34.0087 24.5058 33.2159 24.5106C33.1956 24.5106 33.1762 24.5029 33.1619 24.4891C33.1476 24.4753 33.1396 24.4566 33.1396 24.4371C33.4742 23.144 33.644 21.8164 33.6451 20.4837V20.5021ZM39.3687 21.6605C39.3687 23.2455 38.7155 24.7655 37.5526 25.8862C36.3898 27.0069 34.8127 27.6365 33.1682 27.6365H32.0616C32.0421 27.6345 32.0239 27.6261 32.01 27.6127C31.9961 27.5993 31.9874 27.5818 31.9853 27.5629C32.2047 27.1124 32.4146 26.6436 32.5958 26.1747H33.2063C34.4258 26.1747 35.5953 25.7078 36.4576 24.8768C37.3199 24.0457 37.8043 22.9186 37.8043 21.7433V19.3529C37.8043 19.1261 37.7108 18.9087 37.5444 18.7483C37.3781 18.588 37.1524 18.4979 36.9171 18.4979H33.731C33.7098 18.498 33.6893 18.4906 33.6734 18.477C33.6576 18.4634 33.6475 18.4446 33.6451 18.4243V17.0361C33.6451 17.0141 33.6542 16.9931 33.6703 16.9776C33.6864 16.962 33.7082 16.9533 33.731 16.9533H39.3306C39.3533 16.9533 39.3752 16.962 39.3913 16.9776C39.4074 16.9931 39.4164 17.0141 39.4164 17.0361L39.3687 21.6605Z" fill="#E93B3C"/>
<path d="M17.8691 4.08764L17.6445 3.84333C17.2534 3.46802 17.0235 3.00087 16.9891 2.51164C16.9547 2.02241 17.1176 1.53734 17.4535 1.12884C17.564 0.968425 17.5988 0.781233 17.5514 0.601801C17.5039 0.42237 17.3776 0.262809 17.1956 0.152562C17.0135 0.0423143 16.7882 -0.0111802 16.561 0.0019504C16.3339 0.015081 16.1203 0.0939502 15.9597 0.224004C15.3388 0.842424 15 1.61376 15 2.40917C15 3.20459 15.3388 3.97592 15.9597 4.59434L16.3978 5.03771C16.8568 5.51391 17.106 6.09968 17.106 6.7026C17.106 7.30552 16.8568 7.89129 16.3978 8.36749L15.9485 8.838C15.8193 8.99718 15.7699 9.18992 15.8102 9.3773C15.8506 9.56469 15.9776 9.73277 16.1658 9.84761C16.354 9.96246 16.5892 10.0155 16.8241 9.99606C17.0589 9.97661 17.2758 9.88612 17.4311 9.74284L17.8916 9.28137C18.6135 8.53981 19.004 7.62379 19 6.68136C18.9959 5.73893 18.5975 4.82513 17.8691 4.08764Z" fill="#E93B3C"/>
<path d="M22.1518 5.51399L21.9765 5.25848C21.6846 4.85121 21.5136 4.34289 21.4895 3.81077C21.4654 3.27865 21.5895 2.7518 21.843 2.31029C21.9438 2.1336 21.9836 1.91823 21.9541 1.70818C21.9246 1.49813 21.8281 1.30926 21.6843 1.18015C21.5408 1.0454 21.3581 0.982261 21.1755 1.00431C20.9929 1.02636 20.8249 1.13183 20.7076 1.29808C20.2496 1.96972 20 2.80521 20 3.66646C20 4.52771 20.2496 5.36319 20.7076 6.03484L21.0415 6.5262C21.3827 7.0434 21.5679 7.67959 21.5679 8.33442C21.5679 8.98925 21.3827 9.62544 21.0415 10.1426L20.6992 10.6438C20.6427 10.7317 20.6016 10.832 20.5785 10.9388C20.5555 11.0457 20.5508 11.1569 20.5648 11.2659C20.5788 11.3749 20.6112 11.4795 20.6601 11.5735C20.709 11.6675 20.7734 11.749 20.8495 11.8133C20.9718 11.9322 21.125 11.9981 21.2836 12C21.3897 12 21.4944 11.9718 21.5898 11.9173C21.6853 11.8628 21.7689 11.7836 21.8346 11.6855L22.1685 11.1843C22.71 10.3758 23.003 9.3753 23 8.34574C22.9969 7.31617 22.698 6.31812 22.1518 5.51399Z" fill="#E93B3C"/>
<path d="M13.1644 6.05081L12.9553 5.81715C12.6628 5.44472 12.4914 4.97989 12.4673 4.49328C12.4431 4.00667 12.5675 3.52489 12.8215 3.12115C12.9037 2.96183 12.9296 2.77591 12.8943 2.5977C12.859 2.41949 12.7649 2.26102 12.6293 2.15152C12.4938 2.04203 12.3259 1.9889 12.1568 2.00194C11.9876 2.01498 11.8286 2.09331 11.709 2.22248C11.2501 2.83667 11 3.60069 11 4.38827C11 5.17586 11.2501 5.93987 11.709 6.55407L12.0436 7.0034C12.3854 7.47636 12.571 8.05813 12.571 8.65695C12.571 9.25577 12.3854 9.83754 12.0436 10.3105L11.7006 10.7688C11.6435 10.8467 11.6012 10.9359 11.5761 11.0314C11.5511 11.1268 11.5438 11.2266 11.5547 11.3251C11.5655 11.4236 11.5944 11.5188 11.6395 11.6053C11.6846 11.6918 11.7452 11.7679 11.8177 11.8293C11.9402 11.938 12.0938 11.9982 12.2527 12C12.3589 12 12.4638 11.9742 12.5595 11.9244C12.6551 11.8746 12.7389 11.8021 12.8047 11.7124L13.1393 11.2541C13.6919 10.5183 13.9954 9.60261 13.9999 8.65718C14.0045 7.71174 13.7099 6.79271 13.1644 6.05081Z" fill="#E93B3C"/>
<path d="M12.6368 13.2716C12.4556 13.0972 12.2151 13 11.965 13C11.7149 13 11.4743 13.0972 11.2931 13.2716C11.1054 13.4615 11 13.719 11 13.9875C11 14.256 11.1054 14.5136 11.2931 14.7035C11.4807 14.8933 11.7352 15 12.0006 15C12.266 15 12.5205 14.8933 12.7082 14.7035C12.8006 14.6116 12.874 14.5021 12.9241 14.3812C12.9742 14.2604 13 14.1306 13 13.9996C13 13.8685 12.9742 13.7388 12.9241 13.6179C12.874 13.497 12.8006 13.3875 12.7082 13.2957L12.6368 13.2716Z" fill="#E93B3C"/>
<path d="M29.1985 20C28.9947 20.0048 28.8005 20.0891 28.6564 20.2355C28.5123 20.3819 28.4292 20.5791 28.4246 20.7861C28.4172 23.7339 27.269 26.5606 25.2276 28.656C25.1555 28.729 25.0982 28.8158 25.0592 28.9114C25.0201 29.0069 25 29.1093 25 29.2128C25 29.3163 25.0201 29.4187 25.0592 29.5142C25.0982 29.6098 25.1555 29.6966 25.2276 29.7696C25.2987 29.8426 25.3834 29.9005 25.4767 29.9401C25.57 29.9796 25.6701 30 25.7712 30C25.8723 30 25.9724 29.9796 26.0657 29.9401C26.159 29.9005 26.2437 29.8426 26.3148 29.7696C28.6566 27.3863 29.9804 24.1625 30 20.7954C29.9988 20.691 29.9773 20.5878 29.9369 20.4917C29.8964 20.3957 29.8377 20.3087 29.7641 20.2357C29.6906 20.1627 29.6035 20.1051 29.5081 20.0663C29.4126 20.0275 29.3105 20.0081 29.2077 20.0094L29.1985 20Z" fill="#E93B3C"/>
<path d="M23.8777 30.5147C23.7477 30.2846 23.5317 30.1143 23.2762 30.0403C23.0207 29.9664 22.7461 29.9948 22.5115 30.1195C22.3953 30.1853 22.2934 30.2732 22.2116 30.3781C22.1299 30.4831 22.0698 30.603 22.035 30.731C22.0002 30.859 21.9912 30.9926 22.0087 31.124C22.0261 31.2555 22.0696 31.3822 22.1366 31.4969C22.2231 31.6502 22.3495 31.7777 22.5026 31.8662C22.6557 31.9547 22.8299 32.0009 23.0072 32C23.1811 31.9988 23.3518 31.9535 23.5029 31.8682C23.7288 31.7333 23.8936 31.5176 23.9634 31.2657C24.0331 31.0138 24.0025 30.7449 23.8777 30.5147Z" fill="#E93B3C"/>
</svg>

<?xml version="1.0" encoding="UTF-8" standalone="no"?>
<svg width="41" xmlns="http://www.w3.org/2000/svg" viewBox="0 0 41 39" height="39">
 <path d="m40.132 15.409h-6.401c-0.021 0-0.042-0.007-0.058-0.021-0.015-0.014-0.025-0.032-0.028-0.053v-1.48c0-0.225-0.092-0.441-0.256-0.601-0.165-0.16-0.388-0.252-0.621-0.254h-17.228c-0.213 0-0.417 0.081-0.567 0.226s-0.235 0.342-0.235 0.546c0 0.205 0.085 0.402 0.235 0.546 0.15 0.145 0.354 0.227 0.567 0.227h16.407c0.021 0.002 0.041 0.011 0.055 0.027 0.014 0.015 0.022 0.035 0.022 0.055v5.838c-0.002 2.554-0.693 5.063-2.006 7.282-1.313 2.218-3.203 4.068-5.483 5.369h-15.425c-2.2837-1.298-4.177-3.148-5.4935-5.366-1.3164-2.219-2.0105-4.729-2.0139-7.285v-5.838c-0.0001-0.02 0.0076-0.04 0.0217-0.055 0.0141-0.016 0.0335-0.025 0.0546-0.027h5.2848c0.1046 0.011 0.2105 0.003 0.3117-0.025s0.1957-0.075 0.2781-0.138c0.0823-0.064 0.151-0.142 0.202-0.231 0.0511-0.088 0.0835-0.186 0.0953-0.287 0.012-0.101 0.0031-0.203-0.0259-0.3-0.029-0.098-0.0777-0.189-0.1433-0.268-0.0655-0.08-0.1466-0.146-0.2387-0.195s-0.1934-0.08-0.298-0.092c-0.0568-0.009-0.1148-0.009-0.1717 0h-6.0956c-0.23274 0-0.45597 0.089-0.62055 0.248-0.16459 0.159-0.25705 0.374-0.25705 0.598v6.61c0.0042014 2.401 0.56182 4.77 1.6325 6.937 1.0707 2.168 2.6277 4.078 4.5585 5.594 0.0134 0.014 0.0209 0.032 0.0209 0.051s-0.0075 0.037-0.0209 0.051c-0.0112 0.007-0.0245 0.011-0.0382 0.011-0.0136 0-0.0269-0.004-0.0381-0.011h-5.2371c-0.23274 0-0.45597 0.089-0.62055 0.247-0.16459 0.159-0.25705 0.374-0.25705 0.598 0.010072 1.345 0.5713 2.631 1.5613 3.578s2.3285 1.479 3.7235 1.479h24.993c1.389 0 2.723-0.526 3.713-1.465 0.991-0.939 1.559-2.216 1.581-3.555-0.002-0.225-0.097-0.44-0.263-0.598-0.166-0.159-0.39-0.248-0.624-0.248h-7.135c-0.01-0.013-0.015-0.029-0.015-0.046 0-0.016 0.005-0.032 0.015-0.046-0.004-0.015-0.004-0.03 0-0.046 1.345-1.092 2.506-2.38 3.443-3.815h2.204c2.069 0 4.054-0.792 5.517-2.203 1.464-1.41 2.286-3.323 2.286-5.318v-5.396c0.001-0.111-0.02-0.222-0.063-0.325s-0.107-0.197-0.187-0.276c-0.081-0.079-0.177-0.143-0.283-0.186-0.106-0.044-0.22-0.067-0.335-0.068zm-6.363 19.307c0.023 0 0.045 0.008 0.061 0.024s0.025 0.036 0.025 0.058c-0.203 0.766-0.665 1.444-1.313 1.929-0.648 0.484-1.444 0.747-2.264 0.747h-24.993c-0.8193 0.001-1.6153-0.261-2.2618-0.746-0.6464-0.485-1.1062-1.164-1.3061-1.93-0.0064-0.006-0.0114-0.013-0.0149-0.021-0.0034-0.007-0.0052-0.016-0.0052-0.025 0-0.008 0.0018-0.017 0.0052-0.024 0.0035-0.008 0.0085-0.016 0.0149-0.022h32.052v0.01zm-0.124-14.214v-0.423h2.48c0.023 0 0.045 0.009 0.061 0.024 0.016 0.016 0.025 0.037 0.025 0.059v1.462c-0.005 0.764-0.322 1.495-0.883 2.036-0.56 0.54-1.319 0.846-2.112 0.851-0.02 0-0.04-0.008-0.054-0.022s-0.022-0.032-0.022-0.052c0.334-1.293 0.504-2.621 0.505-3.953v0.018zm5.724 1.158c0 1.586-0.653 3.106-1.816 4.226-1.163 1.121-2.74 1.75-4.385 1.75h-1.106c-0.02-0.002-0.038-0.01-0.052-0.023-0.014-0.014-0.023-0.031-0.025-0.05 0.22-0.451 0.43-0.919 0.611-1.388h0.61c1.22 0 2.389-0.467 3.252-1.298 0.862-0.831 1.346-1.958 1.346-3.134v-2.39c0-0.227-0.093-0.444-0.26-0.605-0.166-0.16-0.392-0.25-0.627-0.25h-3.186c-0.021 0-0.042-0.007-0.058-0.021-0.015-0.014-0.025-0.032-0.028-0.053v-1.388c0-0.022 0.009-0.043 0.025-0.058 0.016-0.016 0.038-0.025 0.061-0.025h5.6c0.022 0 0.044 0.009 0.06 0.025 0.016 0.015 0.025 0.036 0.025 0.058l-0.047 4.624z" fill="#E93B3C"/>
 <path d="m17.869 4.0876l-0.225-0.2443c-0.391-0.3753-0.62-0.8424-0.655-1.3317-0.034-0.4892 0.129-0.9743 0.465-1.3828 0.11-0.16038 0.145-0.34757 0.097-0.527-0.047-0.17943-0.173-0.33899-0.355-0.44924s-0.408-0.16374-0.635-0.15061c-0.227 0.013131-0.441 0.092-0.601 0.22205-0.621 0.61842-0.96 1.3898-0.96 2.1852s0.339 1.5667 0.96 2.1851l0.438 0.4434c0.459 0.4762 0.708 1.062 0.708 1.6649s-0.249 1.1887-0.708 1.6649l-0.45 0.4705c-0.129 0.1592-0.178 0.3519-0.138 0.5393 0.041 0.1874 0.168 0.3555 0.356 0.4703 0.188 0.1149 0.423 0.1684 0.658 0.1485 0.235-0.0195 0.452-0.11 0.607-0.2533l0.461-0.4614c0.722-0.7416 1.112-1.6576 1.108-2.6-0.004-0.9425-0.402-1.8563-1.131-2.5938z" fill="#E93B3C"/>
 <path d="m22.152 5.514l-0.176-0.2555c-0.291-0.4073-0.462-0.9156-0.486-1.4477-0.025-0.5322 0.1-1.059 0.353-1.5005 0.101-0.1767 0.141-0.3921 0.111-0.6021-0.029-0.2101-0.126-0.3989-0.27-0.528-0.143-0.1348-0.326-0.19794-0.508-0.1759-0.183 0.0221-0.351 0.1275-0.468 0.2938-0.458 0.6716-0.708 1.5071-0.708 2.3684 0 0.8612 0.25 1.6967 0.708 2.3683l0.334 0.4914c0.341 0.5172 0.526 1.1534 0.526 1.8082s-0.185 1.291-0.526 1.8086l-0.343 0.501c-0.056 0.088-0.097 0.188-0.121 0.295-0.022 0.107-0.027 0.218-0.013 0.327s0.046 0.214 0.095 0.308 0.113 0.175 0.19 0.239c0.122 0.119 0.275 0.185 0.434 0.187 0.106 0 0.21-0.028 0.306-0.083 0.095-0.054 0.179-0.133 0.245-0.231l0.333-0.502c0.542-0.808 0.835-1.8087 0.832-2.8383-0.003-1.0295-0.302-2.0276-0.848-2.8317z" fill="#E93B3C"/>
 <path d="m13.164 6.0508l-0.209-0.2336c-0.292-0.3725-0.464-0.8373-0.488-1.3239s0.101-0.9684 0.355-1.3721c0.082-0.1594 0.108-0.3453 0.072-0.5235-0.035-0.1782-0.129-0.3367-0.265-0.4462-0.135-0.1095-0.303-0.1626-0.472-0.1496-0.169 0.0131-0.328 0.0914-0.448 0.2206-0.459 0.6142-0.709 1.3782-0.709 2.1658s0.25 1.5516 0.709 2.1658l0.335 0.4493c0.341 0.473 0.527 1.0547 0.527 1.6536 0 0.5988-0.186 1.1805-0.527 1.653l-0.343 0.459c-0.057 0.078-0.1 0.167-0.125 0.262-0.025 0.096-0.032 0.196-0.021 0.294 0.011 0.099 0.039 0.194 0.085 0.28 0.045 0.087 0.105 0.163 0.178 0.224 0.122 0.109 0.276 0.169 0.435 0.171 0.106 0 0.211-0.026 0.307-0.076 0.095-0.049 0.179-0.122 0.245-0.212l0.334-0.458c0.553-0.736 0.856-1.6514 0.861-2.5968 0.004-0.9455-0.29-1.8645-0.836-2.6064z" fill="#E93B3C"/>
 <path d="m12.637 13.272c-0.181-0.175-0.422-0.272-0.672-0.272s-0.491 0.097-0.672 0.272c-0.188 0.19-0.293 0.447-0.293 0.716 0 0.268 0.105 0.526 0.293 0.716 0.188 0.189 0.442 0.296 0.708 0.296 0.265 0 0.519-0.107 0.707-0.296 0.093-0.092 0.166-0.202 0.216-0.323s0.076-0.25 0.076-0.381c0-0.132-0.026-0.261-0.076-0.382s-0.123-0.23-0.216-0.322l-0.071-0.024z" fill="#E93B3C"/>
 <path d="m29.198 20c-0.203 0.005-0.398 0.089-0.542 0.236-0.144 0.146-0.227 0.343-0.231 0.55-0.008 2.948-1.156 5.775-3.197 7.87-0.072 0.073-0.13 0.16-0.169 0.255-0.039 0.096-0.059 0.198-0.059 0.302 0 0.103 0.02 0.206 0.059 0.301 0.039 0.096 0.097 0.183 0.169 0.256 0.071 0.073 0.155 0.13 0.249 0.17 0.093 0.04 0.193 0.06 0.294 0.06s0.201-0.02 0.295-0.06c0.093-0.04 0.178-0.097 0.249-0.17 2.342-2.384 3.665-5.608 3.685-8.975-0.001-0.104-0.023-0.207-0.063-0.303-0.041-0.096-0.099-0.183-0.173-0.256-0.073-0.073-0.16-0.131-0.256-0.17-0.095-0.038-0.198-0.058-0.3-0.057l-0.01-0.009z" fill="#E93B3C"/>
 <path d="m23.878 30.515c-0.13-0.23-0.346-0.401-0.602-0.475-0.255-0.074-0.53-0.045-0.764 0.08-0.117 0.065-0.219 0.153-0.3 0.258-0.082 0.105-0.142 0.225-0.177 0.353s-0.044 0.262-0.026 0.393c0.017 0.132 0.061 0.258 0.128 0.373 0.086 0.153 0.213 0.281 0.366 0.369 0.153 0.089 0.327 0.135 0.504 0.134 0.174-0.001 0.345-0.046 0.496-0.132 0.226-0.135 0.391-0.35 0.46-0.602 0.07-0.252 0.039-0.521-0.085-0.751z" fill="#E93B3C"/>
</svg>
